X: 10059
T: Dick The Welshman
R: polka
M: 2/4
K: Amajor
|:e|cB Ac|df ec|fa ec|dB Be|
cB Ac|df ec|fa ed|cA A:|
|:e|fa ga|ea ga|df ec|dB Be|
fa ga|ea ga|df ed|cA A:|

